!!!!SEGMENT: pl-kk--kk-i-109--003_pekiel-bartlomiej--missa-paschalis-patrem.krn
!!!cenid: 16xx:1115
!!!COM: Pękiel, Bartłomiej
!!!COM-rismID: pe30105642
!!!CDT: <1633-~1670
!!!CNT: Polish
!!!OPR: Missa Paschalis
!!!OTL: Patrem
!!!OMV: 003
!!!PDT:
!!!AGN: Sacred; Mass
!!!SMS-siglum: PL-Kk
!!!SMS-shelfmark: Kk.I.109
!!!SMS-shelfwork: 001-003 M
!!!SMS-variant:
!!!SMS-altvar:
!!!NIFC-rismSourceID: 1001145405
!!!NIFC-islandoraID: pl-kk:3341
!!!URL-pdf-islandora: https://repozytorium.nifc.pl/islandora/object/pl-kk%3A3341/datastream/PDF/view
!!!URL-scan: https://polish.musicsources.pl/pl/lokalizacje/galeria/rekopisy/5744 @EN{Scan on Polish Music Herritage in Open Access Website} @PL{Skany w portalu Dziedzictwo Muzyki Polskiej w otwartym dostępie}
!!!ONB-nifc: UWAGA: części Mszy: 1. Kyrie, 2. Et in terra, 3. Patrem, 4. Sanctus, 5. Agnus Dei
!!!AIN: 1 alto 1 empty 1 organ 2 tenor
!!!key:
**kern	**kern	**text	**kern	**text	**kern	**text	**kern	**text	**text
*part5	*part4	*part4	*part3	*part3	*part2	*part2	*part1	*part1	*paet1
*	*group1	*	*group1	*	*group1	*	*group1	*	*
*staff5	*staff4	*staff4	*staff3	*staff3	*staff2	*staff2	*staff1	*staff1	*staff1
*Iorgan	*Iempty	*	*Itenor	*	*Itenor	*	*Ialto	*	*
*I"[Organo]	*I"Baßo.	*	*I"Tenore 2o A 4.	*	*I"Tenor 1o A 4.	*	*I"Alto.	*	*
*I'org	*I'B	*	*I'T 2	*	*I'T 1	*	*I'A	*	*
*clefF4	*clefF4	*	*clefC4	*	*clefC4	*	*clefC3	*	*
*k[]	*k[]	*	*k[]	*	*k[]	*	*k[]	*	*
*a:	*a:	*	*a:	*	*a:	*	*a:	*	*
*M2/1	*M2/1	*	*M2/1	*	*M2/1	*	*M2/1	*	*
*met(C)	*met(C)	*	*met(C)	*	*met(C)	*	*met(C)	*	*
=1-	=1-	=1-	=1-	=1-	=1-	=1-	=1-	=1-	=1-
*	*	*	*all\right	*	*all\right	*	*	*	*
*2\middle or right	*2\middle or right	*	*	*	*2\right	*	*2\middle or right	*	*
!LO:TX:b:t=Patrem	!	!	!	!	!	!	!	!	!
2AA/	2AA/	Pa-	2rG	.	2c\	Pa-	1e	PA-	.
2E\	2E\	-trem	2E/	Pa-	4B\	-trem	.	.	.
.	.	.	.	.	4G/	.	.	.	.
2BB/	2BB/	o-	4B\	.	2G/	om-	4.d\	-trem	.
.	.	.	4B\	-trem	.	.	.	.	.
.	.	.	.	.	.	.	8e\	o-	.
!LO:TX:t=P:problem=kreska pseudotaktowa	!	!	!	!	!	!	!	!	!
2D/	4.D/	-mni-	8F#X/L	o-	2A/	-ni-	4.f#X\	-mni-	.
.	.	.	8E/	.	.	.	.	.	.
.	.	.	8F#/	-mni-	.	.	.	.	.
.	8D/	-po-	8G/J	.	.	.	8f#\	-po-	.
=2-	=2-	=2-	=2-	=2-	=2-	=2-	=2-	=2-	=2-
4.C/	4.C/	-ten-	8A/	-po-	2c\	-po-	1e	-ten-	.
.	.	.	8E/	.	.	.	.	.	.
.	.	.	2A/	-te(n)-	.	.	.	.	.
8D/	8D/	.	.	.	.	.	.	.	.
!LO:TX:t=P:problem=mixed beam	!	!	!	!	!	!	!	!	!
8E\L	8E\L	.	.	.	2B\	-ten-	.	.	.
8D\	8D\J	.	.	.	.	.	.	.	.
!	!	!	!LO:TX:b:t=P:problem=# below	!	!	!	!	!	!
8E\	4E\	.	4G#X/	.	.	.	.	.	.
8EE/J	.	.	.	.	.	.	.	.	.
!	!	!	!	!	!LO:TX:a:t=P:problem=# above	!	!	!	!
2AA/	2AA/	-tem	2A/	-tem	4c#X\	-tem	2e\	-te(m)	.
.	.	.	.	.	4e\	.	.	.	.
!LO:TX:t=P:problem=kreska pseudotaktowa	!	!	!	!	!LO:TX:a:t=P:problem=# above	!	!	!	!
2A\	2A\	fac-	2r	.	4.c#X\	fac-	2e\	fa-	.
.	.	.	.	.	8c#\	-to-	.	.	.
=3-	=3-	=3-	=3-	=3-	=3-	=3-	=3-	=3-	=3-
4F#X\	4F#X\	-to-	2rG	.	2d#X\	-rem	4.f#X\	-cto-	.
4B\	4B\	-r(em)	.	.	.	.	.	.	.
.	.	.	.	.	.	.	8f#\	-rem	.
2.E\	2.E\	cae-	4r	.	2e\	cae-	2g\	cae-	.
.	.	.	4Gny/	fa-	.	.	.	.	.
.	.	.	4A/	-cto-	2f#X\	li	4f#X\	-li	.
4D#X/	8D#X/	-li	4B\	-rem	.	.	2f#X\	Cae-	.
*	*custos:G	*	*	*	*	*	*	*	*
.	8D#X/	et	.	.	.	.	.	.	.
*	*	*	*2\right	*	*	*	*	*	*
!	!LO:LB:g=original	!	!	!	!	!	!	!	!
4.G\	4.G\	ter-	2B\	cae-	2g\	et	.	.	.
.	.	.	.	.	.	.	4e\	-li	.
16F#X\LL	16F#X\LL	.	.	.	.	.	.	.	.
!LO:TX:t=P:problem=kreska pseudotaktowa	!	!	!	!	!	!	!	!	!
16E\JJ	16E\JJ	.	.	.	.	.	.	.	.
=4-	=4-	=4-	=4-	=4-	=4-	=4-	=4-	=4-	=4-
2B\	2B\	.	4B\	-li	4f#X\	ter-	4d\	et	.
.	.	.	4B\	et	2e\	.	4g\	.	.
*	*	*	*custos:B	*	*	*	*	*	*
2BB/	2BB/	.	2B\	ter-	.	.	2f#X\	ter-	.
.	.	.	.	.	4dny\	.	.	.	.
!	!	!	!LO:LB:g=original	!	!	!	!	!	!
2E\	2E\	-rae	1B	-rae	1e	-rae	1g#X	-rae	.
!LO:LB:g=original	!	!	!	!	!	!	!	!	!
4.E\	4.E\	Vi-	.	.	.	.	.	.	.
8Dny/	8Dny/	-si-	.	.	.	.	.	.	.
=5-	=5-	=5-	=5-	=5-	=5-	=5-	=5-	=5-	=5-
4C#X/	4C#X/	-bi-	2.A/	Vi-	2e\	Vi	2a\	Vi-	.
8BB/L	8BB/	-li-	.	.	.	.	.	.	.
8AA/J	8AA/	-um	.	.	.	.	.	.	.
*	*	*	*	*	*custos:d	*	*	*	*
!LO:TX:t=P:problem=kreska pseudotaktowa	!	!	!	!	!	!	!	!	!
2D/	4.D/	Vi-	.	.	2d\	si	2f#X\	-si-	.
.	.	.	4A/	-si-	.	.	.	.	.
.	8D/	-si-	.	.	.	.	.	.	.
!	!	!	!	!	!LO:LB:g=original	!	!	!	!
2GG/	4.GG/	-bi-	4.B\	-bi-	4.d\	bi	4.gny\	-bi-	.
.	8GG/	-li-	8B\	-li-	8d\	li	8g\	-li-	.
*	*	*	*	*	*	*	*custos:g	*	*
2Cny/	2Cny/	-um	2G/	-um	2cny\	um	2e\	-um	.
!	!	!	!	!	!	!	!LO:LB:g=original	!	!
=6-	=6-	=6-	=6-	=6-	=6-	=6-	=6-	=6-	=6-
2GG/	(2GG/	o-	2B\	om-	(2d\	o-	2g\	om-	.
!LO:TX:t=P:problem=kreska pseudotaktowa	!	!	!	!	!	!	!	!	!
2AA/	4.AA/)	.	4.A/	.	4.c\)	.	2e\	-ni-	.
.	8BB/	-mni-	8A/	-ni-	8c\	-mni-	.	.	.
2E\	2E\	-um	2G#X/	-um	2B\	-um	1e	-um	.
8G#X\L	8.G#X\	et	2rG	.	8B\	Et	.	.	.
!	!	!	!	!	!LO:TX:a:t=P:problem=# above	!	!	!	!
8E\	.	.	.	.	8G#X/	in-	.	.	.
.	16E\	in-	.	.	.	.	.	.	.
!LO:TX:a:t=P:problem=# above	!	!	!	!	!	!	!	!	!
8F#X\	8.F#X\	-ui-	.	.	8A/	-Vi-	.	.	.
8G#X\J	.	.	.	.	8B\	-si-	.	.	.
!	!LO:TX:a:t=P:problem=# above	!	!	!	!	!	!	!	!
.	16G#X\	-si-	.	.	.	.	.	.	.
=7-	=7-	=7-	=7-	=7-	=7-	=7-	=7-	=7-	=7-
4.A\	4.A\	-bi-	4A/	Et	4.c\	-bi-	0r	.	.
.	.	.	2e\	in-	.	.	.	.	.
16Gny\LL	16Gny\LL	.	.	.	16B\LL	.	.	.	.
16Fny\JJ	16Fny\JJ	.	.	.	16A\JJ	.	.	.	.
4.E\	4.E\	.	.	.	8Gny/L	.	.	.	.
.	.	.	.	.	8F#X/	.	.	.	.
.	.	.	2B\	-Vi-	8G/	.	.	.	.
16D/LL	16D/LL	.	.	.	8A/J	.	.	.	.
*	*custos:BB	*	*	*	*	*	*	*	*
!LO:TX:t=P:problem=kreska pseudotaktowa	!	!	!	!	!	!	!	!	!
16C/JJ	16C/JJ	.	.	.	.	.	.	.	.
!	!LO:LB:g=original	!	!	!	!	!	!	!	!
4BB/	4BB/	.	.	.	2.B\	.	.	.	.
4GG/	4GG/	.	4d\	si-	.	.	.	.	.
8AA/L	8AA/L	.	2.c\	-bi-	.	.	.	.	.
8BB/	8BB/	.	.	.	.	.	.	.	.
8C/	8C/	.	.	.	4A/	.	.	.	.
8D/J	8D/J	.	.	.	.	.	.	.	.
=8-	=8-	=8-	=8-	=8-	=8-	=8-	=8-	=8-	=8-
1E	2.E\	.	.	.	4G#X/	.	2r	.	.
.	.	.	8B\L	.	2A/	.	.	.	.
.	.	.	8A\J	.	.	.	.	.	.
.	.	.	4.B\	-li-	.	.	2.e\	et	.
.	4E\	-li-	.	.	4G#X/	-li-	.	.	.
.	.	.	8B\	-um	.	.	.	.	.
1AA	2AA/	-um	2c\	Et	2A/	-um	.	.	.
.	.	.	.	.	.	.	4A/	in	.
.	4.AA/	et	4c\	in	2r	.	4.a\	V-	.
.	.	.	4A/	V-	.	.	.	.	.
.	8AA/	in	.	.	.	.	8a\	-nu(m)	.
=9-	=9-	=9-	=9-	=9-	=9-	=9-	=9-	=9-	=9-
2E\	2E\	V-	8B\L	.	1r	.	4.g\	D(o-	.
*	*	*	*custos:B	*	*	*	*	*	*
.	.	.	8A\J	.	.	.	.	.	.
!	!	!	!LO:LB:g=original	!	!	!	!	!	!
.	.	.	8B\L	.	.	.	.	.	.
.	.	.	8c\J	.	.	.	8g\	-mi)-	.
2BB/	2BB/	-num	4d\	.	.	.	2f#X\	-num	.
.	.	.	4d\	-num	.	.	.	.	.
2D/	4.D/	D(o-	8d\L	Do-	2A/	Je-	8f#\L	Je-	.
.	.	.	16c\L	.	.	.	8e\	.	.
.	.	.	16B\J	.	.	.	.	.	.
.	.	.	8A\	.	.	.	8f#\	.	.
.	8D/	-mi)-	8B\J	.	.	.	8g\J	.	.
*	*	*	*	*	*custos:B	*	*	*	*
2C/	4C/	-num	4.c\	.	2e\	-sum	2a\	.	.
.	8c\L	Je-	.	.	.	.	.	.	.
.	16B\L	.	8c\	-mi-	.	.	.	.	.
.	16A\JJ	.	.	.	.	.	.	.	.
!LO:LB:g=original	!	!	!	!	!LO:LB:g=original	!	!	!	!
=10-	=10-	=10-	=10-	=10-	=10-	=10-	=10-	=10-	=10-
4GG#X/	4G#X\	.	2B\	-num	4.B\	Je-	2e\	-sum	.
4EE/	4E\	-sum	.	.	.	.	.	.	.
.	.	.	.	.	8c\	.	.	.	.
8FF#X/L	8F#X\L	Je-	2.A/	Je-	4d\	.	8d\L	Je-	.
8EE/	8E\	.	.	.	.	.	8c\	.	.
!	!LO:TX:a:t=P:problem=# above	!	!	!	!	!	!	!	!
8FF#/	8F#X\	.	.	.	4d\	-sum	8A\	.	.
!LO:TX:b:t=P:problem=# below	!	!	!	!	!	!	!	!	!
8GG#X/J	8G#\J	.	.	.	.	.	8B\J	.	.
8AA/L	8A\L	.	.	.	(2c\	Chri-	4c\	.	.
8GG#/	8G#\	.	.	.	.	.	.	.	.
!	!	!	!	!	!	!	!LO:TX:a:t=P:global:problem=rozdzielacz słów	!	!
8FF#/	8F#\J	.	4A/	-sum	.	.	4g,<\	-su(m)	.
8EE/J	8E\	-su(m)	.	.	.	.	.	.	.
4DD/	4D/	Chri-	4A/	Chri-	2B\	.	(4fny\	Chriſ-	.
!LO:TX:t=P:problem=kreska pseudotaktowa	!	!	!LO:TX:b:t=P:problem=# below	!	!	!	!	!	!
4EE/	4E\	.	4G#X/	.	.	.	4e\)	.	.
=11-	=11-	=11-	=11-	=11-	=11-	=11-	=11-	=11-	=11-
!	!	!	!LO:TX:a:t=P:global:problem=rozdzielacz słów	!	!	!	!	!	!
4AA/	4AA/	-ſtum	4A,</	-stum	4c\)	.	4e,<\	-tum	.
2A\	4.A\	Fi-	4.A/	Fi-	4.c\	-stum	4.e\	Fi-	.
.	8A\	-li-	8A/	-li-	8c\	Fi-	8e\	-li-	.
*	*custos:A	*	*	*	*	*	*	*	*
4G#X\	4G#X\	-um	4B\	-um	4B\	-li-	4e\	-um	.
!	!LO:LB:g=original	!	!	!	!	!	!	!	!
4A\	4A\	De-	4A\	De-	4c\	-um	4e\	De-	.
4E\	4E\	-i	4B\	.	4e\	De-	4g\	-i	.
4F\	4Fny\	V-	4A/	.	4c\	-i	4f\	V-	.
!LO:TX:t=P:problem=kreska pseudotaktowa	!	!	!	!	!	!	!	!	!
4C/	4C/	-ni-	4Gny/	i	4c\	V-	4e\	-ni-	.
=12-	=12-	=12-	=12-	=12-	=12-	=12-	=12-	=12-	=12-
4.D/	4.D/	-ge-	8F#X/L	V-	8B\L	-ni-	2.d\	-ge-	.
.	.	.	8G/J	.	8A\J	.	.	.	.
.	.	.	4A\	-ni-	2A\	-ge-	.	.	.
8C/	8C/	.	.	.	.	.	.	.	.
2BB/	4.BB/	.	4.B\	-ge-	.	.	.	.	.
*	*	*	*	*	*	*	*custos:c	*	*
.	.	.	.	.	4Gny/	-ni-	4d\	-ni-	.
*	*	*	*custos:E	*	*	*	*	*	*
.	8BB/	-ni-	8B\	-ni-	.	.	.	.	.
!	!	!	!LO:LB:g=original	!	!	!	!LO:LB:g=original	!	!
4AA/	2AA/	-tum	4E,</	-tum	2A\	-tum	2c/	-tum	.
2A\	.	.	2A/	et	.	.	.	.	.
.	2rC	.	.	.	4c\	Et	4.e\	et	.
!LO:TX:t=P:problem=kreska pseudotaktowa	!	!	!LO:TX:b:t=P:problem=# below	!	!	!	!	!	!
4G#X\	.	.	4G#X/	ex	4B\	ex	.	.	.
.	.	.	.	.	.	.	8e\	ex	.
=13-	=13-	=13-	=13-	=13-	=13-	=13-	=13-	=13-	=13-
4A\	1rD	.	4A/	Pa-	4c\	Pa-	8.f\	Pa-	.
.	.	.	.	.	.	.	16f\	-tre	.
4Gny\	.	.	4Gny/	-tre	4B\	-tre	2e\	na-	.
2F\	.	.	2Fny/	na-	2A/	na-	.	.	.
.	.	.	.	.	.	.	4d\	.	.
!	!	!	!	!	!LO:TX:a:t=P:problem=nad nutą znaczek podobny do bemola	!	!	!	!
2.E\	4r	.	4E/	-tum	4G/	-tum	4e\	-tu(m)	.
.	2E\	an-	2e\	an-	2B\	an-	2g\	an-	.
!LO:TX:t=P:problem=kreska pseudotaktowa	!	!	!	!	!	!	!	!	!
4BB/	4BB/	-te	4d\	-te	4B\	-te	4f#X\	-te	.
=14-	=14-	=14-	=14-	=14-	=14-	=14-	=14-	=14-	=14-
2C/	4.C/	om-	8c\L	o-	4.e\	om-	4.e\	om-	.
.	.	.	16B\L	.	.	.	.	.	.
.	.	.	16A\J	.	.	.	.	.	.
.	.	.	8G\J	.	.	.	.	.	.
*	*	*	*	*	*custos:d	*	*	*	*
.	8C/	-ni-	8A\	-mni-	8e\	-ni-	8fny\	-ni-	.
!	!	!	!	!	!LO:LB:g=original	!	!	!	!
2GGny/	2GG/	-a	2B\	-a	2d\	-a	2g\	-a	.
!LO:LB:g=original	!	!	!	!	!	!	!	!	!
4r	4r	.	4r	.	4r	.	4r	.	.
2G\	2Gny\	an-	2B\	an-	2d\	an-	2g\	an-	.
!	!	!	!	!	!	!	!LO:TX:a:t=P:problem=# above	!	!
4D/	4D/	-te	4A/	-te	4d\	-te	4f#X\	-te	.
=15-	=15-	=15-	=15-	=15-	=15-	=15-	=15-	=15-	=15-
2E\	4.E\	om-	4.G/	om-	4.B\	om-	4.e\	om-	.
.	8E\	-ni-	8G/	-ni-	8B\	-ni-	8e\	-ni-	.
2BB/	2BB/	-a	2F#X/	-a	2B\	-a	2d\	-a	.
2GG/	2GG/	se-	4.G/	sae-	2B\	Se-	8B\L	se-	.
.	.	.	.	.	.	.	8c\J	.	.
.	.	.	.	.	.	.	2d\	.	.
*	*	*	*Xtuplet	*	*	*	*	*	*
.	.	.	12F#/L	.	.	.	.	.	.
.	.	.	12E/	.	.	.	.	.	.
2AA/	4.AA/	.	.	.	4.A/	.	.	.	.
.	.	.	12D/J	.	.	.	.	.	.
!	!	!	!LO:N:vis=4.	!	!	!	!	!	!
.	.	.	4E/	.	.	.	.	.	.
.	.	.	.	.	.	.	4c#X/	-cu-	.
*	*	*	*custos:F	*	*	*	*	*	*
.	8AA/	-cu-	8E/	-cu-	8A/	-cu-	.	.	.
!	!	!	!LO:LB:g=original	!	!	!	!	!	!
=16-	=16-	=16-	=16-	=16-	=16-	=16-	=16-	=16-	=16-
*	*custos:D	*	*	*	*	*	*	*	*
1D	1D	-la	1Fny	-la	1A	-la	1d	-la	.
!	!LO:LB:g=original	!	!	!	!	!	!	!	!
=17-	=17-	=17-	=17-	=17-	=17-	=17-	=17-	=17-	=17-
*M3/1	*M3/1	*	*M3/1	*	*M3/1	*	*M3/1	*	*
0D	1D	De-	1A	De-	1d	De-	1f#X	De-	.
.	1D	-um	1A	-um	1d	-um	1f#	-um	.
*	*	*	*	*	*	*	*custos:a	*	*
!	!	!	!LO:TX:t=P:problem=kreska pseudotaktowa	!	!	!	!	!	!
1BB	1BB	de	1B	de	1d	de	1g#X	de	.
!	!	!	!	!	!	!	!LO:LB:g=original	!	!
=18-	=18-	=18-	=18-	=18-	=18-	=18-	=18-	=18-	=18-
0AA	0AA	De-	0c	De-	0e	De-	0a	De-	.
!LO:TX:t=P:problem=kreska pseudotaktowa	!	!	!LO:TX:t=P:problem=kreska pseudotaktowa	!	!	!	!	!	!
1E	1E	-o	1B	-o	1e	-o	1g#X	-o	.
=19-	=19-	=19-	=19-	=19-	=19-	=19-	=19-	=19-	=19-
0F	0F	lu-	0A	lu-	0c	lu-	0a	lu-	.
!	!	!	!LO:TX:t=P:problem=kreska pseudotaktowa	!	!	!	!	!	!
1D	1D	-men	1A	-men	1d	-men	1fny	-men	.
=20-	=20-	=20-	=20-	=20-	=20-	=20-	=20-	=20-	=20-
1C	1C	de	1A	de	1e	de	1e	de	.
0E	1.E	lu-	1.A	lu-	1.B	lu-	1.e	lu-	.
!	!	!	!LO:TX:t=P:problem=kreska pseudotaktowa	!	!	!	!	!	!
.	2E\	-mi-	2G/	-mi-	2B\	-mi-	2e\	-mi-	.
=21-	=21-	=21-	=21-	=21-	=21-	=21-	=21-	=21-	=21-
!	!	!	!LO:TX:t=P:problem=kreska pseudotaktowa	!	!LO:N:acc=-	!	!	!	!
0.AA	0.AA	-ne	0.A	-ne	0.cn	-ne	0.e	-ne	.
=22-	=22-	=22-	=22-	=22-	=22-	=22-	=22-	=22-	=22-
1rA	1rA	.	1r	.	1re	.	1rg	.	.
*	*	*	*	*	*custos:e	*	*	*	*
1A	1A	De-	1c	De-	1e	De-	1a	De-	.
!	!	!	!LO:TX:t=P:problem=kreska pseudotaktowa	!	!LO:LB:g=original	!	!	!	!
1E	1E	-u(m)	1B	-um	1e	-um	1gny	-um	.
=23-	=23-	=23-	=23-	=23-	=23-	=23-	=23-	=23-	=23-
0F	0F	Ve-	0A	Ve-	0c	Ve-	0f	Ve-	.
*custos:FF	*	*	*	*	*	*	*	*	*
!	!	!	!LO:TX:t=P:problem=kreska pseudotaktowa	!	!	!	!	!	!
1C	1C	-ru(m)	1G	-rum	1c	-rum	1e	-ru(m)	.
!LO:LB:g=original	!	!	!	!	!	!	!	!	!
=24-	=24-	=24-	=24-	=24-	=24-	=24-	=24-	=24-	=24-
1FFny	1FF	De	1c	De	1fny	De	1a	De	.
1C	1C	De-	1c	De-	1e	De-	1g	De-	.
1D	1D	-o	1A	-o	1d	-o	1f	-o	.
=25-	=25-	=25-	=25-	=25-	=25-	=25-	=25-	=25-	=25-
*	*	*	*custos:A	*	*	*	*	*	*
0.AA	0AA	Ve-	0A	Ve-	0c#X	Ve-	0e	Ve-	.
!	!	!	!LO:LB:g=original	!	!	!	!	!	!
!	!	!	!LO:TX:t=P:problem=kreska pseudotaktowa	!	!	!	!	!	!
.	1AA	-ro	1A	-ro	1c#	-ro	1e	-ro	.
=26-	=26-	=26-	=26-	=26-	=26-	=26-	=26-	=26-	=26-
0BB-X	0BB-X	de	0F	de	1d	.	0d	de	.
.	.	.	.	.	2B-X\	De	.	.	.
.	.	.	.	.	2cny\	.	.	.	.
!	!	!	!LO:TX:t=P:problem=kreska pseudotaktowa	!	!	!	!	!	!
1GG	1GG	De-	1G	De-	2d\	De-	1d	De-	.
.	.	.	.	.	2d\	-o	.	.	.
=27-	=27-	=27-	=27-	=27-	=27-	=27-	=27-	=27-	=27-
*	*col	*	*	*	*	*	*	*	*
1FF	1FF	-o	1A	-o	0d	Ve-	1f	-o	.
0AA	0AA	Ve-	0A	Ve-	.	.	0e	Ve-	.
*	*Xcol	*	*	*	*	*	*	*	*
!	!	!	!	!	!LO:TX:b:t=P:problem=# below	!	!	!	!
.	.	.	.	.	1c#X	-ro	.	.	.
=28-	=28-	=28-	=28-	=28-	=28-	=28-	=28-	=28-	=28-
!	!	!	!LO:TX:t=P:problem=kreska pseudotaktowa	!	!	!	!	!	!
0.D	0.D	-ro	0.A	-ro	0.d	.	0.f#X	-ro	.
!	!LO:PB:g=original	!	!	!	!	!	!	!	!
=29-	=29-	=29-	=29-	=29-	=29-	=29-	=29-	=29-	=29-
*M2/1	*M2/1	*	*M2/1	*	*M2/1	*	*M2/1	*	*
*met(C)	*met(C)	*	*met(C)	*	*met(C)	*	*met(C)	*	*
*	*	*	*	*	*	*	*custos:G	*	*
4.D/	4.D/	ge-	1rA	.	4.d\	Ge-	1r	.	.
8D/	8D/	-ni-	.	.	8d\	-ni-	.	.	.
4E\	4E\	-tum	.	.	4cny\	-tum	.	.	.
4F#X\	4F#X\	non	.	.	4A/	non	.	.	.
!	!	!	!	!	!	!	!LO:LB:g=original	!	!
2G\	2G\	fac-	4.G/	Ge-	8Bny\L	fa-	4.g\	Ge-	.
.	.	.	.	.	8c\	.	.	.	.
.	.	.	.	.	8d\	.	.	.	.
.	.	.	8G/	-ni-	8e\J	.	8g\	-ni-	.
*	*	*	*	*	*custos:G	*	*	*	*
!LO:TX:t=P:problem=kreska pseudotaktowa	!	!	!	!	!	!	!	!	!
2D/	2D/	-tu(m)	4A/	-tum	2d\	.	4fny\	-tum	.
!	!	!	!LO:TX:t=P:problem=kreska pseudotaktowa	!	!	!	!	!	!
.	.	.	4B\	non	.	.	4d\	non	.
!	!	!	!	!	!LO:LB:g=original	!	!	!	!
=30-	=30-	=30-	=30-	=30-	=30-	=30-	=30-	=30-	=30-
4.C/	4.C/	con-	2c\	fac-	4G/	-ctum	8e\L	fa-	.
.	.	.	.	.	.	.	8d\	.	.
.	.	.	.	.	8.e\	con-	8e\	.	.
8C/	8C/	-ſub-	.	.	.	.	8f\J	.	.
.	.	.	.	.	16e\	-sub-	.	.	.
!	!	!	!LO:TX:t=P:problem=kreska pseudotaktowa	!	!	!	!	!	!
4BBny/	4BBny/	-stan-	2d\	-tum	4d\	-stan-	2g\	.	.
4GG/	4GG/	-ti-	.	.	4B\	-ti-	.	.	.
8AA/L	8AA/L	-a-	4r	.	8c\L	-a-	4e\	-ctum	.
8BB/	8BB/	.	.	.	8d\J	.	.	.	.
8C/	8C/	.	8.c\	con-	2e\	.	8.a\	Con-	.
8D/J	8D/J	.	.	.	.	.	.	.	.
.	.	.	16c\	-sub-	.	.	16a\	-sub-	.
!LO:PB:g=original	!	!	!	!	!	!	!	!	!
4E\	4E\	.	8B\	-stan-	.	.	4.g\	-stan-	.
.	.	.	8G/	-ti-	.	.	.	.	.
!LO:TX:t=P:problem=kreska pseudotaktowa	!	!	!	!	!	!	!	!	!
4C/	4C/	-lem	8.c\	-a-	4e\	-lem	.	.	.
.	.	.	.	.	.	.	8g\	-ti-	.
.	.	.	16B\	-lem	.	.	.	.	.
=31-	=31-	=31-	=31-	=31-	=31-	=31-	=31-	=31-	=31-
2Fny\	(2Fny\	Pa-	8A\L	Pa-	4.f\	Pa-	4.a\	-a-	.
*	*	*	*custos:d	*	*	*	*	*	*
.	.	.	8B\J	.	.	.	.	.	.
!	!	!	!LO:LB:g=original	!	!	!	!	!	!
.	.	.	2d\	.	.	.	.	.	.
.	.	.	.	.	8e\L	.	8a\	-le(m)	.
2G\	2G\)	.	.	.	8d\	.	2g\	Pa-	.
.	.	.	.	.	8c\J	.	.	.	.
.	.	.	4B\	.	4d\	.	.	.	.
2C/	4C/	-tri	4c\	-tri	4e\	-tri	4g\	-tri	.
.	8.C/	per	8.c\	per	8.e\	per	8.g\	per	.
.	16C/	que(m)	16B\	quem	16e\	quem	16g\	que(m)	.
!LO:TX:t=P:problem=kreska pseudotaktowa	!	!	!	!	!	!	!	!	!
2GG/	4.GG/	om-	4.B\	om-	4.d\	om-	4.g\	om-	.
.	8GG/	-ni-	8B\	-ni-	8d\	-ni-	8g\	-ni-	.
=32-	=32-	=32-	=32-	=32-	=32-	=32-	=32-	=32-	=32-
4GG/	4GG/	-a	4B\	-a	4d\	-a	4g\	-a	.
*	*	*ij	*	*	*	*	*	*	*
4D/	8.D/	per	8A\	per	8.d\	p(er)	8.f\	p(er)	.
.	.	.	8A\	quem	.	.	.	.	.
.	16D/	que(m)	.	.	16d\	quem	16f\	quem	.
2AA/	4.AA/	om-	4.A/	om-	4.c\	om-	4.e\	om-	.
*	*custos:AA	*	*	*	*	*	*	*	*
.	8AA/	-ni-	8A/	-ni-	8c\	-ni-	8e\	-ni-	.
!	!LO:LB:g=original	!	!	!	!	!	!	!	!
4AA/	4AA/	-a	4A,</	-a	4c\	-a	4e\	-a	.
*	*	*Xij	*	*	*	*	*	*	*
4.FF/	4.FF/	om-	4.A/	om-	4.c\	-o(m)-	4.f\	-o(m)-	.
!	!	!	!LO:N:vis=8.	!	!	!	!	!	!
8FF/	8FF/	-ni-	8A/	-ni-	8c\	-ni-	8f\	-ni-	.
*	*	*	*	*	*custos:A	*	*custos:c	*	*
8GG/L	4GG/	-a	4G/	-a	4B-X\	-a	4e\	-a	.
8GG/J	.	.	.	.	.	.	.	.	.
!	!	!	!	!	!LO:PB:g=original	!	!	!	!
=33-	=33-	=33-	=33-	=33-	=33-	=33-	=33-	=33-	=33-
1AA	2.AA/	fac-	4F/	fac-	2.A/	fac-	4c#X/	fa-	.
.	.	.	8E/L	.	.	.	2d\	.	.
.	.	.	8D/J	.	.	.	.	.	.
.	.	.	4.E/	.	.	.	.	.	.
.	4AA/	-ta	.	.	4A/	-ta	4c#X/	-cta	.
.	.	.	8E/	-ta	.	.	.	.	.
1D	1D	ſunt	1F#X	sunt	1A	ſunt	1d	sunt	.
=34-	=34-	=34-	=34-	=34-	=34-	=34-	=34-	=34-	=34-
*M3/1	*M3/1	*	*M3/1	*	*M3/1	*	*M3/1	*	*
!	!LO:N:vis=00	!	!	!	!	!	!	!	!
0.D	00.r	.	1rA	.	1d	qui	1f	qui	.
.	.	.	1rA	.	1.f	pro-	1.a	pro-	.
*	*	*	*custos:A	*	*	*	*	*	*
.	.	.	1D	Qui	.	.	.	.	.
.	.	.	.	.	4e\	.	4g\	.	.
!	!	!	!	!	!LO:TX:a:t=P:problem=cezury dopisane ołówkiem w tt. 34-48	!	!	!	!
.	.	.	.	.	4d,\	.	4f\	.	.
!	!	!	!LO:PB:g=original	!	!	!	!	!	!
=35-	=35-	=35-	=35-	=35-	=35-	=35-	=35-	=35-	=35-
0A	.	.	0A	pro-	(2c#X\	.	2e\	.	.
.	.	.	.	.	2Bny\)	.	2d\	.	.
.	.	.	.	.	2c#\	.	2e\	.	.
.	.	.	.	.	2d\	.	2f\	.	.
1E	.	.	1E	-pter	1e,	-pter	1g,<	-pter	.
=36-	=36-	=36-	=36-	=36-	=36-	=36-	=36-	=36-	=36-
!	!LO:N:vis=00	!	!	!	!	!	!	!	!
1F	00.r	.	1Fny	nos	1d	nos	1f	nos	.
1.A	.	.	1.A	ho-	1.d	ho-	1.e	ho-	.
!LO:TX:t=P:problem=kreska pseudotaktowa	!	!	!	!	!LO:TX:a:t=P:problem=# above	!	!	!	!
2AA/	.	.	2A/	-mi-	2c#X,\	-mi-	2e\	-mi-	.
=37-	=37-	=37-	=37-	=37-	=37-	=37-	=37-	=37-	=37-
0D	.	.	0.D	-nes	0.d,	-nes	0.f#X	-nes	.
*custos:AA	*	*	*	*	*	*	*	*	*
1BB	.	.	.	.	.	.	.	.	.
!LO:LB:g=original	!	!	!	!	!	!	!	!	!
=38-	=38-	=38-	=38-	=38-	=38-	=38-	=38-	=38-	=38-
0AA	1D	et	1A	et	1d	et	1f#X	et	.
.	1D	prop-	1A	pro-	1d	pro-	1f#	pro-	.
1E	1BB	-ter	1B	-pter	1d,	-pter	1g#X	-pter	.
=39-	=39-	=39-	=39-	=39-	=39-	=39-	=39-	=39-	=39-
1C	0AA	noſ-	0c	nos-	0e	noſ-	0a	nos-	.
1D	.	.	.	.	.	.	.	.	.
*	*	*	*	*	*custos:e	*	*	*	*
!LO:TX:t=P:problem=kreska pseudotaktowa	!	!	!	!	!	!	!	!	!
1E	1E	-tra(m)	1B	-tram	1e,	-tra(m)	1g#X	-tra(m)	.
!	!	!	!	!	!LO:LB:g=original	!	!	!	!
=40-	=40-	=40-	=40-	=40-	=40-	=40-	=40-	=40-	=40-
!LO:TX:t=P:problem=brakujący takt	!	!	!	!	!	!	!	!	!
0.ryy	1C	sa-	1c	sa-	1e	ſa-	1a	Sa-	.
*	*lig	*	*	*	*lig	*	*lig	*	*
.	1D	-lu-	0B	-lu-	1f	-lu-	1a	-lu-	.
!	!	!	!	!	!	!	!LO:TX:b:t=P:problem=# below	!	!
.	1E	.	.	.	1e,	.	1g#X	.	.
*	*Xlig	*	*	*	*Xlig	*	*Xlig	*	*
=41-	=41-	=41-	=41-	=41-	=41-	=41-	=41-	=41-	=41-
*	*	*	*	*	*	*	*custos:a	*	*
0AA	0AA	-tem	0.c#X	-tem	0.e,	-tem	0.a	-tem	.
1A	1A	deſ-	.	.	.	.	.	.	.
!	!	!	!	!	!	!	!LO:LB:g=original	!	!
=42-	=42-	=42-	=42-	=42-	=42-	=42-	=42-	=42-	=42-
!	!	!	!	!	!LO:N:vis=00	!	!	!	!
1.F#X	1.F#X	-cen-	0.d	de-	00.r	.	1rg	.	.
.	.	.	.	.	.	.	1rg	.	.
2E\	2E\	-dit	.	.	.	.	.	.	.
!LO:TX:a:t=P:problem=# above	!	!	!	!	!	!	!	!	!
1F#X	1F#	de	.	.	.	.	1a	de-	.
=43-	=43-	=43-	=43-	=43-	=43-	=43-	=43-	=43-	=43-
!LO:TX:t=P:problem=kreska pseudotaktowa	!	!	!	!	!	!	!	!	!
0.G	0.G	cae-	0.B	.	.	.	1.gny	-scen-	.
.	.	.	.	.	.	.	2fny\	-dit	.
*	*	*	*	*	*	*	*	*ij	*
.	.	.	.	.	.	.	1g	de-	.
=44-	=44-	=44-	=44-	=44-	=44-	=44-	=44-	=44-	=44-
*	*	*	*custos:A	*	*	*	*	*	*
!	!	!	!	!	!LO:N:vis=0	!	!	!	!
0.C	0C	-lis	0.cny	-scen-	0.r	.	1.e	-scen-	.
.	.	.	.	.	.	.	2d\	-dit	.
*	*	*	*	*	*	*	*	*Xij	*
.	1C	deſ-	.	.	.	.	1e	de-	.
!	!	!	!LO:LB:g=original	!	!	!	!	!	!
=45-	=45-	=45-	=45-	=45-	=45-	=45-	=45-	=45-	=45-
0.FF	0.FF	-cen-	0.A	.	1rf	.	1f	-scen-	.
.	.	.	.	.	1rf	.	2F/	.	.
.	.	.	.	.	.	.	2G/	.	.
.	.	.	.	.	1f,	de-	2A/	.	.
.	.	.	.	.	.	.	2B/	.	.
=46-	=46-	=46-	=46-	=46-	=46-	=46-	=46-	=46-	=46-
0.C	0C	-dit	0.G	-dit	1.e	-scen-	2cny/	.	.
.	.	.	.	.	.	.	2d\	.	.
.	.	.	.	.	.	.	1e	.	.
.	.	.	.	.	2d\	-dit	.	.	.
*	*custos:D	*	*	*	*	*	*	*	*
.	1C	de-	.	.	1e,	de	1c	-dit	.
!	!LO:LB:g=original	!	!	!	!	!	!	!	!
=47-	=47-	=47-	=47-	=47-	=47-	=47-	=47-	=47-	=47-
0D	0D	-scen-	2F/	de	0d	cae-	1A	de-	.
.	.	.	2G/	.	.	.	.	.	.
.	.	.	2A\	.	.	.	1f	-ſcen-	.
.	.	.	2B\	.	.	.	.	.	.
!LO:TX:t=P:problem=kreska pseudotaktowa	!	!	!	!	!	!	!	!	!
1A	1A	-dit	2c\	.	1cny,	-lis	2e\	.	.
.	.	.	2d\	.	.	.	2f\	.	.
=48-	=48-	=48-	=48-	=48-	=48-	=48-	=48-	=48-	=48-
*	*	*	*	*	*lig	*	*	*	*
!	!	!	!LO:N:vis=0	!	!	!	!	!	!
1E	1E	de	0.e	.	1c	de	0g	.	.
*	*lig	*	*	*	*	*	*	*	*
1G	1Fny	cae-	.	.	1B	.	.	.	.
*	*	*	*	*	*Xlig	*	*	*	*
1.Fny	1.E	.	.	.	1A,	.	1a	-dit	.
*	*Xlig	*	*	*	*	*	*	*	*
=49-	=49-	=49-	=49-	=49-	=49-	=49-	=49-	=49-	=49-
*	*	*	*	*	*lig	*	*	*	*
.	.	.	0d	cae-	1f	cae-	1a	de	.
2G\	2G\	.	.	.	.	.	.	.	.
*	*lig	*	*	*	*	*	*lig	*	*
1A	1A	.	.	.	1.e	.	1A	cae-	.
*custos:D	*	*	*	*	*	*	*	*	*
1AA	1AA	.	1c#X	.	.	.	1a	.	.
*	*Xlig	*	*	*	*Xlig	*	*Xlig	*	*
.	.	.	.	.	2E/	.	.	.	.
!LO:LB:g=original	!	!	!	!	!	!	!	!	!
=50-	=50-	=50-	=50-	=50-	=50-	=50-	=50-	=50-	=50-
*M2/1	*M2/1	*	*M2/1	*	*M2/1	*	*M2/1	*	*
*met(C)	*met(C)	*	*met(C)	*	*met(C)	*	*met(C)	*	*
*	*	*	*	*	*custos:A	*	*	*	*
!	!LO:TX:t=P:problem=kreska pseudotaktowa	!	!LO:TX:t=P:problem=kreska pseudotaktowa	!	!LO:TX:t=P:problem=podwójna kreska	!	!	!	!
1D	1D	-lis	1d	-lis	1F#X;	-lis	1a	-lis	.
!	!	!	!	!	!LO:LB:g=original	!	!	!	!
4.D/	4D/	Et	4d\	Et	4A/	Et	4f#X\	Et	.
.	8.D/	in-	8.d\	in-	8A/	in-	8.f#\	in-	.
8D/	.	.	.	.	8d\	-car-	.	.	.
*	*	*	*	*	*	*	*custos:g	*	*
.	16D/	-car-	16d\	-car-	.	.	16f#\	-car-	.
!LO:TX:t=P:problem=kreska pseudotaktowa	!	!	!	!	!	!	!LO:LB:g=original	!	!
2G\	4.G\	-na-	4.B\	-na-	4.d\	-na-	4.g\	-na-	.
.	8GG/	-tus	8B\	-tus	8d\	-tus	8g\	-tus	.
=51-	=51-	=51-	=51-	=51-	=51-	=51-	=51-	=51-	=51-
2C/	4C/	eſt	4cny\	eſt	4e\	est	4g\	eſt	.
*	*	*	*custos:A	*	*	*	*	*	*
.	4C/	de	4c\	de	4e\	de	4g\	de	.
!	!	!	!LO:LB:g=original	!	!	!	!	!	!
2F\	4.F\	Sp(i-	4.A/	Spi-	2.c\	spi-	4.fny\	Spi-	.
.	8F\	-ri-	8A/	-ri-	.	.	8f\	-ri-	.
2C/	2C/	-t)u	2G/	-tu	.	.	2e\	-tu	.
.	.	.	.	.	8c\	-ri-	.	.	.
.	.	.	.	.	8c\	-tu	.	.	.
2D/	2D/	San	2F/	San-	2A/	ſan-	2d\	San	.
=52-	=52-	=52-	=52-	=52-	=52-	=52-	=52-	=52-	=52-
1AA	1AA	cto	1E	-cto	1A	-cto	1c#X	cto	.
4r	4r	.	0rG	.	4r	.	4r	.	.
!	!	!	!	!	!LO:TX:a:t=P:problem=# above	!	!	!	!
2A\	2A\	ex	.	.	2c#X\	ex	2e\	ex	.
!LO:TX:t=P:problem=kreska pseudotaktowa	!	!	!	!	!	!	!	!	!
4F\	4F\	Ma-	.	.	4f\	Ma-	4a\	Ma-	.
=53-	=53-	=53-	=53-	=53-	=53-	=53-	=53-	=53-	=53-
4.G\	4.G\	-ri-	.	.	8e\	-ri-	4.g\	-ri-	.
.	.	.	.	.	8B\	-a	.	.	.
.	.	.	.	.	2d\	Vir-	.	.	.
8D/	8D/	-a	.	.	.	.	8f\	-a	.
4.A\	4.A\	Vir-	.	.	.	.	4.e\	Vir-	.
!	!	!	!	!	!LO:TX:a:t=P:problem=# above	!	!	!	!
.	.	.	.	.	4c#X\	-gi-	.	.	.
8AA/	8A\	-gi-	.	.	.	.	8e\	-gi-	.
2D/	2D/	-ne	4r	.	2d\	-ne	2f\	-ne	.
.	.	.	4D/	et	.	.	.	.	.
!LO:TX:t=P:problem=kreska pseudotaktowa	!	!	!	!	!	!	!	!	!
2AA/	4AA/	et	2A/	Ho-	2rd	.	2rf	.	.
.	2A\	Ho-	.	.	.	.	.	.	.
=54-	=54-	=54-	=54-	=54-	=54-	=54-	=54-	=54-	=54-
4E\	.	.	4E/	-mo	1r	.	2r	.	.
4G\	4G\	.	4B\	et	.	.	.	.	.
*	*custos:E	*	*	*	*	*	*	*	*
2F\	2F\	.	4c\	Ho-	.	.	4A/	et	.
.	.	.	4d\	-mo	.	.	2a\	Ho-	.
!	!LO:LB:g=original	!	!	!	!	!	!	!	!
4.E\	4.E\	.	2B\	Ho-	4A\	Et	.	.	.
.	.	.	.	.	2e\	Ho-	2g\	-mo	.
8D/	8D/	.	.	.	.	.	.	.	.
4C#X/	4C#X/	.	2A/	-mo	.	.	.	.	.
*	*	*	*	*	*custos:c	*	*	*	*
4D/	4D/	-mo	.	.	4d\	-mo	4f\	fa-	.
!	!	!	!	!	!LO:LB:g=original	!	!	!	!
=55-	=55-	=55-	=55-	=55-	=55-	=55-	=55-	=55-	=55-
1AA	2.AA/	fac-	2.A/	fa-	8c#X\L	fa-	4e\	.	.
.	.	.	.	.	16d\L	.	.	.	.
.	.	.	.	.	16e\JJ	.	.	.	.
.	.	.	.	.	16f\LL	.	2d\	.	.
.	.	.	.	.	16e\	.	.	.	.
.	.	.	.	.	16f\	.	.	.	.
.	.	.	.	.	16d\JJ	.	.	.	.
.	.	.	.	.	4.e\	.	.	.	.
!	!	!	!	!	!	!	!LO:TX:b:t=P:problem=# below	!	!
.	4AA/	-t(us)	4A/	-ctus	.	.	4c#X/	-ct(us)	.
.	.	.	.	.	8E/	-ctus	.	.	.
*custos:D	*	*	*	*	*	*	*	*	*
!	!LO:TX:a:t=P:problem=podwójna kreska	!	!	!	!	!	!	!	!
1D;	1D;	eſt	1A;;	eſt	1F#X;	est	1dl;<	eſt.	.
!LO:LB:g=original	!	!	!	!	!	!	!LO:PB:g=original	!	!
=56-	=56-	=56-	=56-	=56-	=56-	=56-	=56-	=56-	=56-
*M2/1	*	*	*M2/1	*	*M2/1	*	*M2/1	*	*
*met(C)	*	*	*met(C)	*	*met(C)	*	*met(C)	*	*
!LO:TX:b:t=Crucifixus	!	!	!	!	!	!	!	!	!
2.D/	2.D/	Cru-	2rF	.	00r	.	0r	.	.
.	.	.	2.A/	Cru-	.	.	.	.	.
4E\	4E\	-ci-	.	.	.	.	.	.	.
4F\	4F\	-fi-	.	.	.	.	.	.	.
4D/	4D/	-x(us)	4B\	-ci-	.	.	.	.	.
4.A\	4.A\	et-	4c\	-fi-	.	.	.	.	.
*	*	*	*custos:d	*	*	*	*	*	*
.	.	.	4A/	-xus	.	.	.	.	.
!LO:TX:t=P:problem=kreska pseudotaktowa	!	!	!	!	!	!	!	!	!
8G\	8G\	-ti-	.	.	.	.	.	.	.
!	!	!	!LO:LB:g=original	!	!	!	!	!	!
=57-	=57-	=57-	=57-	=57-	=57-	=57-	=57-	=57-	=57-
4F#X\	4F#X\	-am	4.d\	e-	.	.	2r	.	.
4D/	4D/	pro	.	.	.	.	.	.	.
.	.	.	8c\	-ti-	.	.	.	.	.
1G	1G	no-	4B\	-am	.	.	2.d\	Cru-	.
.	.	.	4G/	pro	.	.	.	.	.
.	.	.	4B\	no-	.	.	.	.	.
.	.	.	4c\	.	.	.	4e\	-ci-	.
!LO:TX:t=P:problem=kreska pseudotaktowa	!	!	!	!	!	!	!	!	!
2Fny\	2Fny\	.	1d\	.	.	.	4f\	-fi-	.
.	.	.	.	.	.	.	4d\	-xus	.
=58-	=58-	=58-	=58-	=58-	=58-	=58-	=58-	=58-	=58-
1E	1E	.	.	.	2.G/	Cru-	1.g	e-	.
.	.	.	2c\	.	.	.	.	.	.
.	.	.	.	.	4A/	-ci-	.	.	.
1D	1D	.	2B\	.	4B\	-fi-	.	.	.
.	.	.	.	.	4G/	-xus	.	.	.
.	.	.	2A/	.	2.d\	e-	2f\	-ti-	.
=59-	=59-	=59-	=59-	=59-	=59-	=59-	=59-	=59-	=59-
!LO:TX:t=P:problem=kreska pseudotaktowa	!	!	!	!	!	!	!	!	!
0E	0E	.	2G#X/	.	.	.	2e\	-am	.
.	.	.	.	.	4d\	-ti-	.	.	.
.	.	.	1A	.	4cny\	-am	2e\	pro	.
.	.	.	.	.	4c\	pro	.	.	.
.	.	.	.	.	1B	no-	1e	no-	.
.	.	.	2G#X/	.	.	.	.	.	.
=60-	=60-	=60-	=60-	=60-	=60-	=60-	=60-	=60-	=60-
!	!	!	!	!	!LO:N:acc=-	!	!	!	!
2AA/	2AA/	bis	2A/	-bis	2cn\	-bis	1e	-bis	.
2A\	2A\	Sub	2c\	ſub	2r	.	.	.	.
2A\	2A\	Pon-	2c\	Pon-	2rd	.	0r	.	.
2G#X\	2G#X\	-ti-	2B\	-ti-	2e\	ſub	.	.	.
=61-	=61-	=61-	=61-	=61-	=61-	=61-	=61-	=61-	=61-
*	*	*	*	*	*custos:d	*	*	*	*
2A\	2A\	-o	2c\	-o	2e\	Pon-	.	.	.
!LO:TX:t=P:problem=kreska pseudotaktowa	!	!	!	!	!LO:LB:g=original	!	!	!	!
2Fny\	2F\	Pi-	2A/	Pi-	2d\	-ti-	.	.	.
0Gny	0G	-la-	4B\	-la-	2.e\	-o	1r	.	.
.	.	.	4Gny/	.	.	.	.	.	.
.	.	.	1c\	.	.	.	.	.	.
.	.	.	.	.	8d\L	Pi-	.	.	.
.	.	.	.	.	8c\J	.	.	.	.
=62-	=62-	=62-	=62-	=62-	=62-	=62-	=62-	=62-	=62-
.	.	.	.	.	1d	-la-	2rf	.	.
.	.	.	2B\	.	.	.	1g	pa-	.
*	*	*	*custos:c	*	*	*	*	*	*
!	!	!	!	!	!LO:TX:a:t=P:global:problem=rozdzielacz słów	!	!	!	!
1.Cny	2Cny/	-to	1c	-to	2e,<\	-to	.	.	.
.	1C/	pa-	.	.	1e\	Paſ-	1e\	-ß(us)	.
!	!	!	!LO:LB:g=original	!	!	!	!	!	!
=63-	=63-	=63-	=63-	=63-	=63-	=63-	=63-	=63-	=63-
.	.	.	1c	Paſ-	.	.	.	.	.
*	*custos:D	*	*	*	*	*	*	*	*
2AA/	2AA/	-ßus	.	.	2c\	.	1a	pa-	[[et
*custos:GG	*	*	*	*	*	*	*	*	*
!	!LO:LB:g=original	!	!	!	!	!	!	!	!
1D	1D	et	1A	-sus	1.d	-ſus	.	.	.
.	.	.	.	.	.	.	2f\	-ßus	ſe-
!LO:LB:g=original	!	!	!	!	!	!	!	!	!
=64-	=64-	=64-	=64-	=64-	=64-	=64-	=64-	=64-	=64-
1GG	1GG	se-	2.B-X\	et	.	.	1.g	et	-pu]]
.	.	.	.	.	2e\	et	.	.	.
.	.	.	4B-\	ſe-	.	.	.	.	.
[1AA	1.AA	-pul-	1.A	-pul-	4c#X\	.	.	.	.
.	.	.	.	.	4A/	.	.	.	.
.	.	.	.	.	2.d\	ſe-	2f\	ſe-	.
=65-	=65-	=65-	=65-	=65-	=65-	=65-	=65-	=65-	=65-
1AA]	.	.	.	.	.	.	2.e\	-pul-	.
!	!	!	!	!	!LO:TX:a:t=P:problem=# above	!	!	!	!
.	.	.	.	.	8c#X\L	-pul-	.	.	.
.	.	.	.	.	8B\J	.	.	.	.
.	2AA/	-tus	2A/	-tus	4.c#\	.	.	.	.
.	.	.	.	.	.	.	4e\	-tus	.
!	!	!	!	!	!LO:TX:a:t=P:problem=# above	!	!	!	!
.	.	.	.	.	8c#X\	-tus	.	.	.
!	!	!	!LO:TX:t=P:problem=podwójna fermata powyżej i poniżej, brevis	!	!	!	!	!	!
1Dl;	1D;	eſt	1Al;;	eſt	1d;<	est	1f#X;<	eſt	.
=66-	=66-	=66-	=66-	=66-	=66-	=66-	=66-	=66-	=66-
*M3/1	*M3/1	*	*M3/1	*	*M3/1	*	*M3/1	*	*
!LO:TX:t=P:problem=znak O - tempus perfectum przed 3/1	!	!	!	!	!	!	!LO:TX:t=P:problem=Znak O - tempus perfectum przed 3/1	!	!
1D	1D	Et	1A	Et	1d	Et	1f#X	Et	.
1F#X	1F#X	Re-	1A	re-	1.d	re-	1f#	Re-	.
*	*	*	*	*	*	*	*custos:e	*	*
1D	1D	-ſur-	1A	-ſur-	.	.	1f#	-ſur-	.
.	.	.	.	.	2d\	-ſur-	.	.	.
!	!	!	!	!	!	!	!LO:LB:g=original	!	!
=67-	=67-	=67-	=67-	=67-	=67-	=67-	=67-	=67-	=67-
!LO:TX:t=P:problem=kreska pseudotaktowa	!	!	!	!	!	!	!	!	!
0.AA	0A	-re-	0A	-re-	0c#X	-re-	0e	-re-	.
.	1AA	-xit	1A	-xit	1c#	-xit	1e	-xit	.
=68-	=68-	=68-	=68-	=68-	=68-	=68-	=68-	=68-	=68-
*	*	*	*	*	*custos:d	*	*	*	*
1.D	1D	ter-	1A	ter-	1d	ter-	1fny	ter-	.
!	!	!	!	!	!LO:LB:g=original	!	!	!	!
.	2D/	-ti-	2A/	-ti-	2d\	-ti-	2f\	-ti-	.
2AA/	2AA/	-â	2A/	-a	2B\	-a	2a\	-â	.
1E	1E	di-	1Bny	di-	1e	di-	1g#X	di-	.
=69-	=69-	=69-	=69-	=69-	=69-	=69-	=69-	=69-	=69-
0AA	0A	-e	0c#X	-e	0e,<	-e	0a	-e	.
*	*	*	*custos:B	*	*	*	*	*	*
!LO:TX:t=P:problem=kreska pseudotaktowa	!	!	!	!	!	!	!	!	!
1FF#X	1F#X	ſe-	1A	ſe-	1d	ſe-	1a	ſe-	.
!	!	!	!LO:LB:g=original	!	!	!	!	!	!
=70-	=70-	=70-	=70-	=70-	=70-	=70-	=70-	=70-	=70-
2GG/	2G\	-cun-	0B	-cun-	0d	-cun-	0gny	-cun-	.
2FF#X/	2F#X\	.	.	.	.	.	.	.	.
2GG/	2G\	.	.	.	.	.	.	.	.
2AA/	2A\	.	.	.	.	.	.	.	.
!LO:N:acc=#	!	!	!	!	!	!	!	!	!
!LO:TX:a:t=P:problem=# above	!	!	!	!	!	!	!	!	!
1BBn	1B	.	1B	du(m)	1d	dum	1f#X	dum	.
=71-	=71-	=71-	=71-	=71-	=71-	=71-	=71-	=71-	=71-
1FF#X	2F#X\	-dum	1A	scri-	1d	scrip-	1a	ſcrip-	.
.	2F#\	ſcri-	.	.	.	.	.	.	.
*custos:DD	*	*	*	*	*	*	*	*	*
*	*	*	*lig	*	*	*	*	*	*
0EE	0E	-ptu-	1B	-ptu-	1.d	-tu-	0g	-tu-	.
.	.	.	1G	.	.	.	.	.	.
!	!	!	!	!	!LO:TX:a:t=P:problem=# above	!	!	!	!
.	.	.	.	.	2c#X\	.	.	.	.
*	*	*	*Xlig	*	*	*	*	*	*
!LO:LB:g=original	!	!	!	!	!	!	!	!	!
=72-	=72-	=72-	=72-	=72-	=72-	=72-	=72-	=72-	=72-
1DD	1D	-ras	1A,<	-ras	1d	-ras	1f#X,<	-ras	.
1.D	1.D	et	1.A	et	1.d	et	1f#	et	.
.	.	.	.	.	.	.	1f#	aſ-	.
2D/	2D/	as-	2A/	as-	2d\	as-	.	.	.
=73-	=73-	=73-	=73-	=73-	=73-	=73-	=73-	=73-	=73-
0BB	0BB	-cen-	0B	-cen-	0d	-cen-	0f#	-cen-	.
*	*custos:GG	*	*	*	*	*	*	*	*
1FF#X	1FF#X	-dit	1A	-dit	1d	-dit	1f#	-dit	.
!	!LO:LB:g=original	!	!	!	!	!	!	!	!
=74-	=74-	=74-	=74-	=74-	=74-	=74-	=74-	=74-	=74-
1GG	1GG	in	1B	in	1d	in	1e	in	.
!	!	!	!	!	!LO:TX:b:t=P:problem=# below	!	!	!	!
0AA	0AA	cae-	0A	cae-	0c#X	cae-	0e	cae-	.
=75-	=75-	=75-	=75-	=75-	=75-	=75-	=75-	=75-	=75-
!LO:TX:t=P:problem=kreska pseudotaktowa	!	!	!	!	!	!	!	!	!
0.D	0.D	-lum	0.A	-lum	0.d	-lum	0.f#X	-lum	.
=76-	=76-	=76-	=76-	=76-	=76-	=76-	=76-	=76-	=76-
0.D	1D	ſe-	1A	se-	1d	ſe-	1f#	ſe-	.
.	1D	-det	1.A	-det	1.d	-det	1f#	-det	.
*	*	*	*	*	*	*	*custos:a	*	*
.	1D	ad	.	.	.	.	1f#	ad	.
.	.	.	2d\	ad	2d\	ad	.	.	.
!	!	!	!	!	!	!	!LO:LB:g=original	!	!
=77-	=77-	=77-	=77-	=77-	=77-	=77-	=77-	=77-	=77-
0D	1.D	dex-	1.d	dex-	1.f#X	dex-	1.a	dex-	.
*	*	*	*	*	*custos:e	*	*	*	*
.	2D/	-te-	2d\	-te-	2f#\	-te-	2a\	-te-	.
!	!	!	!	!	!LO:LB:g=original	!	!	!	!
1E	1E	-ram	1B	-ram	1e	-ram	1g	-ram	.
=78-	=78-	=78-	=78-	=78-	=78-	=78-	=78-	=78-	=78-
*	*lig	*	*lig	*	*	*	*	*	*
1F#X	1F#X	Pa-	1A	Pa-	0d	pa-	1f#X	Pa-	.
1G	1G	.	1B	.	.	.	0e	.	.
*	*Xlig	*	*Xlig	*	*	*	*	*	*
*	*	*	*custos:A	*	*	*	*	*	*
!	!	!	!	!	!LO:TX:b:t=P:problem=# below	!	!	!	!
1A	1A	.	1A	.	1c#X	.	.	.	.
!	!	!	!LO:LB:g=original	!	!	!	!	!	!
=79-	=79-	=79-	=79-	=79-	=79-	=79-	=79-	=79-	=79-
*M2/1	*M2/1	*	*M2/1	*	*M2/1	*	*M2/1	*	*
*met(C)	*met(C)	*	*met(C)	*	*met(C)	*	*	*	*
2D/	2D/	-tris	4A,</	-tris	2d\	-tris	2f#X\	-tris	.
.	.	.	4A/	et	.	.	.	.	.
2D/	4r	.	4.B\	i-	2r	.	2rf	.	.
.	4D/	Et	.	.	.	.	.	.	.
.	.	.	8A/	-te-	.	.	.	.	.
4.E\	4.E\	i-	4G#X/	-rum	1r	.	1r	.	.
.	.	.	4E/	Ven-	.	.	.	.	.
8D/	8D/	-te-	.	.	.	.	.	.	.
4C#X/	4C#X/	-rum	4.A/	-tu-	.	.	.	.	.
!LO:TX:t=P:problem=kreska pseudotaktowa	!	!	!	!	!	!	!	!	!
4AA/	4AA/	Ven-	.	.	.	.	.	.	.
!	!	!	!LO:TX:b:t=P:problem=# below	!	!	!	!	!	!
.	.	.	8G#X/	-rus	.	.	.	.	.
=80-	=80-	=80-	=80-	=80-	=80-	=80-	=80-	=80-	=80-
2D/	4.D/	-tu-	4F/	est	4r	.	4r	.	.
.	.	.	4F/	cum	4A/	cum	4d\	cu(m)	.
.	8D/	-r(us)	.	.	.	.	.	.	.
2GG/	4GG/	eſt	4.Gny/	glo-	4.B\	glo-	4.d\	glo-	.
.	4GG/	cu(m)	.	.	.	.	.	.	.
.	.	.	8G/	-ri-	8B\	-ri-	8d\	-ri-	.
2.D/	4D/	glo-	4F#X/	-a	4A/	-a	4d\	-a	.
.	8D/	-ri-	2F#/	iu-	2A/	iu-	2d\	iu-	.
.	8D/	-a	.	.	.	.	.	.	.
.	4D/	iu-	.	.	.	.	.	.	.
*custos:AA	*	*	*	*	*	*	*	*	*
4BB/	4BB/	-di-	4G#X/	-di-	4B\	-di-	4d\	-di-	.
!LO:LB:g=original	!	!	!	!	!	!	!	!	!
=81-	=81-	=81-	=81-	=81-	=81-	=81-	=81-	=81-	=81-
4AA/	4AA/	-ca-	4A/	-ca-	4.E/	-ca-	8.c\L	-ca-	.
.	.	.	.	.	.	.	16d\K	.	.
4GG#X/	4GG#X/	-re	4B\	-re	.	.	8e\J	.	.
.	.	.	.	.	8e\	-re	8e\	-re	.
*	*custos:E	*	*	*	*	*	*	*	*
2AA/	2AA/	Vi-	2A/	Vi-	2cny\	Vi-	2e\	Vi-	.
!	!LO:LB:g=original	!	!	!	!	!	!	!	!
2E\	2E\	-uos	2G#X/	-vos	2B\	-vos	2e\	-vos	.
!LO:TX:t=P:problem=kreska pseudotaktowa	!	!	!	!	!	!	!	!	!
2Cny/	2Cny/	et	2A/	et	2c\	et	2e\	et	.
=82-	=82-	=82-	=82-	=82-	=82-	=82-	=82-	=82-	=82-
!	!	!	!LO:TX:b:t=P:problem=# below	!	!	!	!	!	!
1D	1.D	mor-	2F#X/	mor-	2B\	mor-	1.d	mor-	.
.	.	.	1Gny	.	4A/	.	.	.	.
.	.	.	.	.	4G/	.	.	.	.
1D	.	.	.	.	2.A/	.	.	.	.
!	!	!	!LO:LB:g=original	!	!	!	!	!	!
!	!	!	!LO:TX:b:t=P:problem=# below	!	!	!	!	!	!
.	2D/	-tu-	2F#X/	-tu-	.	.	2d\	-tu-	.
.	.	.	.	.	4A/	-tu-	.	.	.
=83-	=83-	=83-	=83-	=83-	=83-	=83-	=83-	=83-	=83-
*	*	*	*	*	*custos:e	*	*custos:g	*	*
!LO:TX:t=P:problem=kreska pseudotaktowa	!	!	!	!	!	!	!	!	!
1GGny	1GGny	-os	2G/	-os	1B	-os	1d	-os	.
.	.	.	2d\	Cu-	.	.	.	.	.
!	!	!	!	!	!LO:LB:g=original	!	!LO:LB:g=original	!	!
2G\	2G\	cu-	2B\	-ius	2rd	.	2r	.	.
2E\	2E\	-ius	2cny\	re-	2e\	Cu-	4.g\	Cu-	.
.	.	.	.	.	.	.	8e\	-ius	.
=84-	=84-	=84-	=84-	=84-	=84-	=84-	=84-	=84-	=84-
2Fny\	2Fny\	re-	2A/	-gni	4c\	-ius	8a\L	re-	.
.	.	.	.	.	.	.	8g\	.	.
.	.	.	.	.	4.c\	re-	8fny\	.	.
.	.	.	.	.	.	.	8g\J	.	.
2C/	4C/	-gni	2G/	non	.	.	2.e\	.	.
.	.	.	.	.	16B\LL	-gni	.	.	.
.	.	.	.	.	16A\JJ	.	.	.	.
.	4C/	no(n)	.	.	4G/	.	.	.	.
4AA/	4AA/	e-	2Fny/	e-	4A/	.	.	.	.
4BB/	4BB/	-rit	.	.	4d\	non	4d\	.	.
8C\L	8C\L	fi-	2E/	-rit	4G/	.	2e\	-gni	.
8D\	8D\	.	.	.	.	.	.	.	.
8E\	8E\	.	.	.	4c\	e-	.	.	.
!LO:TX:t=P:problem=kreska pseudotaktowa	!	!	!	!	!	!	!	!	!
8F\J	8F\J	.	.	.	.	.	.	.	.
=85-	=85-	=85-	=85-	=85-	=85-	=85-	=85-	=85-	=85-
!	!	!	!LO:TX:b:t=non	!	!	!	!	!	!
2G\	2G\	.	4G/	non	2B\	-rit	4r	.	.
!	!	!	!LO:TX:b:t=erit	!	!	!	!	!	!
.	.	.	8B\L	e-	.	.	4d\	non	.
.	.	.	8c\J	.	.	.	.	.	.
2D/	4D/	-nis	8d\L	.	4.A/	fi-	8f\L	e-	.
.	.	.	8c\	.	.	.	8g\J	.	.
.	4D/	non	8A\	.	.	.	4.a\	.	.
.	.	.	8B\J	.	8d\	-nis	.	.	.
2A\	2A\	e-	4.c\	.	2c\	non	.	.	.
.	.	.	.	.	.	.	16g\LL	.	.
.	.	.	.	.	.	.	16f\JJ	.	.
.	.	.	.	.	.	.	4.e\	.	.
.	.	.	8d\	-rit	.	.	.	.	.
!LO:TX:t=P:problem=kreska pseudotaktowa	!	!	!	!	!	!	!	!	!
2E\	2E\	-rit	2e\	fi-	2B\	e-	.	.	.
.	.	.	.	.	.	.	8f\	.	.
.	.	.	.	.	.	.	4.g\	.	.
=86-	=86-	=86-	=86-	=86-	=86-	=86-	=86-	=86-	=86-
2G\	2G\	fi-	2B\	-nis	4G/	-rit	.	.	.
.	.	.	.	.	.	.	16f\LL	.	.
.	.	.	.	.	.	.	16e\JJ	.	.
.	.	.	.	.	8B\L	non	8d\L	.	.
.	.	.	.	.	8c\J	.	8e\J	.	.
2F\	2F\	.	(2A/	no(n)	2.d\	e-	8f\L	.	.
.	.	.	.	.	.	.	8g\	.	.
.	.	.	.	.	.	.	8a\	.	.
.	.	.	.	.	.	.	8f\J	.	.
2E\	2E\	.	4B\)	.	.	.	2g\	.	.
!	!	!	!	!	!LO:TX:a:t=P:problem=# above	!	!	!	!
.	.	.	4G/	e-	4c#X\	-rit	.	.	.
!	!LO:TX:a:t=P:global:problem=rozdzielacz słów	!	!	!	!	!	!	!	!
2D/	4D,</	-nis	4A/	-rit	4d\	.	4f\	-rit	.
*	*	*ij	*	*	*	*	*	*	*
*	*	*	*custos:A	*	*	*	*	*	*
.	4D/	fi-	4A/	fi-	4d\	fi-	4f\	non	.
!	!	!	!LO:PB:g=original	!	!	!	!	!	!
=87-	=87-	=87-	=87-	=87-	=87-	=87-	=87-	=87-	=87-
!	!	!	!	!	!LO:TX:a:t=P:problem=# above	!	!	!	!
4AA/	4AA/	.	4.A/	.	8c#X\	.	4e\	e-	.
.	.	.	.	.	8A\	.	.	.	.
4FFny/	4FFny/	.	.	.	2d\	.	4f\	-rit	.
.	.	.	8A/	.	.	.	.	.	.
*	*	*	*	*	*	*	*custos:f	*	*
4GG/	4GG/	.	4B-\	.	.	.	2e\	fi-	.
*	*	*	*	*	*custos:d	*	*	*	*
*custos:D	*	*	*	*	*	*	*	*	*
!	!	!	!	!	!LO:TX:a:t=P:problem=# above	!	!	!	!
4AA/	4AA/	.	4A\	.	4c#X\	.	.	.	.
!LO:LB:g=original	!	!	!	!	!LO:PB:g=original	!	!LO:LB:g=original	!	!
=88-	=88-	=88-	=88-	=88-	=88-	=88-	=88-	=88-	=88-
*M3/1	*M3/1	*	*M3/1	*	*M3/1	*	*M3/1	*	*
!LO:TX:t=P:problem=znak O - tempus perfectum przed 3/1	!	!	!	!	!	!	!LO:TX:t=P:problem=Znak O - tempus perfectum przed 3/1	!	!
0.D	1D,<	-nis	1A	-nis	1d,<	-nis	1f#X	-nis	.
*	*	*Xij	*	*	*	*	*	*	*
.	1.D	Et	1A	Et	1d	Et	1f#	Et	.
.	.	.	1A	in	1d	in	1f#	in	.
.	2D/	in	.	.	.	.	.	.	.
=89-	=89-	=89-	=89-	=89-	=89-	=89-	=89-	=89-	=89-
0.GG	1.GG	Spi-	1.Bny	spi-	1.d	spi-	1.g	Spi-	.
.	2GG/	-ri-	2B\	-ri-	2d\	-ri-	2g\	-ri-	.
*	*custos:D	*	*	*	*	*	*	*	*
.	1GG	-tum	1B	-tum	1d	-tum	1g	-tum	.
!	!LO:LB:g=original	!	!	!	!	!	!	!	!
=90-	=90-	=90-	=90-	=90-	=90-	=90-	=90-	=90-	=90-
1.D	1.D	San-	0A	San-	0.d	ſan-	0f#X	San-	.
2C/	2C/	.	.	.	.	.	.	.	.
!LO:TX:t=P:problem=kreska pseudotaktowa	!	!	!	!	!	!	!	!	!
1BB	1BB	.	1B	-ctum	.	.	1g#X	-ctu(m)	.
=91-	=91-	=91-	=91-	=91-	=91-	=91-	=91-	=91-	=91-
*	*	*	*lig	*	*	*	*	*	*
1AA	1AA	ctu(m)	1c	Do-	1e	-ctum	0a	Do-	.
0E	1.E	D(o-	1.B	.	1.e	Do-	.	.	.
.	.	.	.	.	.	.	1g#X	-mi-	.
*	*	*	*Xlig	*	*	*	*	*	*
.	2E\	-mi)-	2B\	-mi-	2e\	-mi-	.	.	.
=92-	=92-	=92-	=92-	=92-	=92-	=92-	=92-	=92-	=92-
!	!	!	!LO:TX:a:t=P:problem=# above	!	!	!	!	!	!
1A	1A	-num	1c#X	-num	1e	-num	1a	-nu(m)	.
1F#X	2.F#X\	et	2.A/	et	2.d\	et	2.a\	et	.
.	4F#\	Vi-	4A/	Vi-	4d\	Vi-	4a\	Vi-	.
*	*	*	*custos:c	*	*	*	*	*	*
!LO:TX:t=P:problem=kreska pseudotaktowa	!	!	!	!	!	!	!	!	!
1G	1G	-ui-	1B	-ui	1d	-vi-	1gny	-vi-	.
!	!	!	!LO:LB:g=original	!	!	!	!	!	!
=93-	=93-	=93-	=93-	=93-	=93-	=93-	=93-	=93-	=93-
!LO:N:acc=#	!	!	!	!	!	!	!	!	!
1Bn	1B	-fi-	1cny	-fi-	1d	-fi-	1f#X	-fi-	.
*	*lig	*	*lig	*	*lig	*	*	*	*
1G	1G	-can-	1B	-can-	1cny	-can	0e	-can-	.
!	!	!	!	!	!LO:TX:b:t=P:problem=# below	!	!	!	!
1A	1A	.	1A	.	1B#X	.	.	.	.
*	*Xlig	*	*Xlig	*	*Xlig	*	*	*	*
=94-	=94-	=94-	=94-	=94-	=94-	=94-	=94-	=94-	=94-
0D	1D	-t(em)	1A	-tem	1d	-tem	1f#X	-tem	.
*	*	*	*	*	*custos:e	*	*	*	*
.	1D	qui	1A	qui	1d	qui	1f#	qui	.
!	!	!	!	!	!LO:LB:g=original	!	!	!	!
1C#X	1C#X	ex	1A	ex	1e	ex	1e	ex	.
=95-	=95-	=95-	=95-	=95-	=95-	=95-	=95-	=95-	=95-
0D	0D	Pa-	0A	Pa-	0d	Pa-	0f#X	Pa-	.
*	*	*	*	*	*	*	*custos:d	*	*
!	!	!	!	!	!LO:TX:b:t=P:problem=# below	!	!	!	!
1AA	1AA	-tre	1A	-tre	1c#X	-tre	1e	-tre	.
!	!	!	!	!	!	!	!LO:LB:g=original	!	!
=96-	=96-	=96-	=96-	=96-	=96-	=96-	=96-	=96-	=96-
0BB	1BB	Fi-	1F	fi-	1Bny	fi-	1d	Fi-	.
.	2BB/	-li-	2F/	-li-	2B\	-li-	2d\	-li-	.
.	2BB/	-o-	2F/	-o-	2B\	-o-	2d\	-o-	.
!LO:TX:t=P:problem=kreska pseudotaktowa	!	!	!	!	!	!	!	!	!
1GG	1GG	-(que)	1G	-que	1B	-(que)	1d	-que	.
=97-	=97-	=97-	=97-	=97-	=97-	=97-	=97-	=97-	=97-
*	*	*	*	*	*	*	*col	*	*
1FF#X	1FF#X	pro-	1A	pro-	1A	pro-	1d	pro-	.
0GG	0GG	-ce-	0G	-ce-	0B	-ce-	0d	-ce-	.
*	*	*	*	*	*	*	*Xcol	*	*
=98-	=98-	=98-	=98-	=98-	=98-	=98-	=98-	=98-	=98-
!	!	!	!LO:TX:b:t=P:problem=# below	!	!	!	!	!	!
0D	1D	-dit	1F#X	-dit	1A	-dit	1d	-dit	.
.	1D	qui	1A	qui	1d	qui	1f#X	qui	.
*custos:AA	*	*	*	*	*	*	*	*	*
1BB	1BB	cu(m)	1B	cum	1d	cum	1g#X	cu(m)	.
!LO:LB:g=original	!	!	!	!	!	!	!	!	!
=99-	=99-	=99-	=99-	=99-	=99-	=99-	=99-	=99-	=99-
2AA/	2AA/	Pa-	0c	Pa-	0e	Pa-	0a	Pa-	.
2BB/	2BB/	.	.	.	.	.	.	.	.
2Cny/	2Cny/	.	.	.	.	.	.	.	.
2D/	2D/	.	.	.	.	.	.	.	.
*	*custos:C	*	*	*	*	*	*	*	*
!LO:TX:t=P:problem=kreska pseudotaktowa	!	!	!	!	!	!	!	!	!
1E	1E	.	1B	-tre	1e	-tre	1g#X	-tre	.
!	!LO:LB:g=original	!	!	!	!	!	!	!	!
=100-	=100-	=100-	=100-	=100-	=100-	=100-	=100-	=100-	=100-
1C	2C/	-tre	1c	et	1e	et	1a	et	.
.	2C/	et	.	.	.	.	.	.	.
0E	1.E	Fi-	1.c	fi-	1.e	Fi-	1.a	Fi-	.
*	*	*	*custos:c	*	*	*	*	*	*
.	2E\	-li-	2B\	-li-	2e\	-li-	2g#X\	-li-	.
!	!	!	!LO:LB:g=original	!	!	!	!	!	!
=101-	=101-	=101-	=101-	=101-	=101-	=101-	=101-	=101-	=101-
!	!	!	!LO:N:acc=-	!	!	!	!	!	!
0.AA	0.AA	-o	0.cn	-o	0.e	-o	0.a	-o	.
=102-	=102-	=102-	=102-	=102-	=102-	=102-	=102-	=102-	=102-
0AA	1.A	Si-	1.c	ſi-	1.e	ſi-	1.a	ſi-	.
.	2A\	-mul	2c\	-mul	2e\	-mul	2a\	-mul	.
!LO:TX:t=P:problem=kreska pseudotaktowa	!	!	!	!	!	!	!	!	!
1E	2.E\	a-	2.B\	a-	2.e\	a-	2.gny\	a-	.
*	*	*	*	*	*custos:c	*	*	*	*
.	4E\	-do-	4B\	-do-	4e\	-do-	4g\	-do-	.
!	!	!	!	!	!LO:LB:g=original	!	!	!	!
=103-	=103-	=103-	=103-	=103-	=103-	=103-	=103-	=103-	=103-
0Fny	0Fny	-ra-	0A	-ra-	0cny	-ra-	0fny	-ra-	.
1C	1C	-t(ur)	1G	-tur	1c	-tur	1e	-tur	.
=104-	=104-	=104-	=104-	=104-	=104-	=104-	=104-	=104-	=104-
*	*	*ij	*	*ij	*	*	*	*ij	*
0FFny	1.F	Si-	1.A	ſi-	1.c	si-	1.f	ſi-	.
.	2F\	-mul	2A/	-mul	2c\	-mul	2f\	-mul	.
1C	2.C/	a-	2.G/	a-	2.c\	a-	2.e\	a-	.
*	*	*	*	*	*	*	*custos:d	*	*
.	4C/	-do-	4G/	-do-	4c\	-do-	4e\	-do-	.
!	!	!	!	!	!	!	!LO:LB:g=original	!	!
=105-	=105-	=105-	=105-	=105-	=105-	=105-	=105-	=105-	=105-
0D	1.D	-ra-	1F	-ra-	1A	-ra-	1.d	-ra-	.
.	.	.	1F	-tur	1A	-tur	.	.	.
.	2D/	-t(ur)	.	.	.	.	2d\	-tur	.
*	*	*Xij	*	*Xij	*	*	*	*Xij	*
!LO:TX:t=P:problem=kreska pseudotaktowa	!	!	!	!	!	!	!	!	!
1AA	1AA	et	1E	et	1A	et	1c	et	.
=106-	=106-	=106-	=106-	=106-	=106-	=106-	=106-	=106-	=106-
1.BB-X	1.BB-X	Con-	1.D	con-	1.G	con-	1.B-X	con-	.
!	!	!	!LO:TX:a:t=P:problem=# above	!	!	!	!	!	!
2AA/	2AA/	-glo-	2F#X/	-glo-	2A/	-glo-	2c/	-glo-	.
1GG	1GG	-ri-	1G	-ri-	1B-X	-ri	1B-X	-ri-	.
=107-	=107-	=107-	=107-	=107-	=107-	=107-	=107-	=107-	=107-
*	*col	*	*	*	*col	*	*	*	*
1FF#X	1FF#X	-fi-	1A	-fi-	1A	-fi-	1d	-fi-	.
0GG	0GG	-ca-	0B-X	-ca-	0G	-ca-	0d	-ca-	.
*	*Xcol	*	*	*	*Xcol	*	*	*	*
=108-	=108-	=108-	=108-	=108-	=108-	=108-	=108-	=108-	=108-
*custos:D	*	*	*custos:d	*	*	*	*	*	*
0.D	0.D	-tur	0.A	-tur	0.F#X	-tur	0.d	-tur	.
!LO:PB:g=original	!	!	!LO:LB:g=original	!	!	!	!	!	!
=109-	=109-	=109-	=109-	=109-	=109-	=109-	=109-	=109-	=109-
*M2/1	*M2/1	*	*M2/1	*	*M2/1	*	*M2/1	*	*
*met(C)	*met(C)	*	*met(C)	*	*met(C)	*	*met(C)	*	*
2D/	2r	.	4.d\	Qui	1r	.	1r	.	.
.	.	.	8A/	lo-	.	.	.	.	.
4.A\	4.A\	Qui	4.c\	-cu-	.	.	.	.	.
8E\	8E\	lo-	8c\	-tus	.	.	.	.	.
!	!	!	!LO:LB:g=original	!	!	!	!	!	!
2G\	4.G\	-cu-	2Bny\	eſt	2r	.	4.g\	Qui	.
*	*custos:D	*	*	*	*	*	*	*	*
.	8G\	-t(us)	.	.	.	.	8d\	lo-	.
!LO:TX:t=P:problem=kreska pseudotaktowa	!LO:PB:g=original	!	!	!	!	!	!	!	!
2D/	4D,</	eſt	2.A\	per	4.d\	Per	4f\	-cu-	.
.	4D/	per	.	.	.	.	8f\	-tus	.
.	.	.	.	.	8A/	pro-	8f\	eſt	.
=110-	=110-	=110-	=110-	=110-	=110-	=110-	=110-	=110-	=110-
4AA/	4AA/	.	.	.	4c\	-phe-	4e\	p(er)	.
*	*	*	*	*	*custos:B	*	*	*	*
4F\	2A\	Pro-	4Fny/	pro-	4d\	-tas	4d\	Pro-	.
!	!	!	!	!	!LO:LB:g=original	!	!	!	!
2E\	.	.	2E/	-phe-	2Bny\	Et	2e\	-phe-	.
.	4G#X\	-phe-	.	.	.	.	.	.	.
4AA/	4A\	-tas	4A/	-tas	4c\	V-	4e\	-tas	.
4FFny/	4F\	et	4A/	et	4c\	-nam	4f\	et	.
4FF/	4F\	V-	4A/	V-	4c\	San-	4f\	V-	.
!LO:TX:t=P:problem=kreska pseudotaktowa	!	!	!	!	!	!	!	!	!
4FF/	4F\	-na(m)	4A/	-nam	4c\	-ctam	4f\	-na(m)	.
=111-	=111-	=111-	=111-	=111-	=111-	=111-	=111-	=111-	=111-
2.C/	2C/	San-	2G/	San-	2c\	Ca-	2e\	San-	.
.	4C/	-cta(m)	4G/	-ctam	4c\	-tho-	4e\	-cta(m)	.
*	*	*	*	*	*	*	*custos:e	*	*
4BBny/	4BBny/	Ca-	4G/	Ca-	4d\	.	4d\	Ca-	.
!	!	!	!	!	!	!	!LO:LB:g=original	!	!
1C	2.C/	-tho-	2.G/	-tho-	4d\	-li-	2.e\	-tho-	.
.	.	.	.	.	8c\L	.	.	.	.
.	.	.	.	.	8B\J	.	.	.	.
.	.	.	.	.	4.c\	.	.	.	.
.	4C/	-li-	4G/	-li-	.	.	4e\	-li-	.
.	.	.	.	.	8B\	.	.	.	.
=112-	=112-	=112-	=112-	=112-	=112-	=112-	=112-	=112-	=112-
2GG/	2GG/	-cam	2G/	-cam	4B,<\	-cam	4d\	-cam	.
.	.	.	.	.	4B\	et	4d\	et	.
!LO:TX:t=P:problem=kreska pseudotaktowa	!	!	!	!	!	!	!	!	!
2G\	2r	.	2rG	.	4.B\	A-	4.d\	A-	.
!	!	!	!	!	!LO:TX:a:t=P:problem=# above	!	!	!	!
.	.	.	.	.	8c#X\	-po-	8e\	-po-	.
2F\	0r	.	4r	.	2.d\	-sto-	2.f\	-ſto-	.
.	.	.	4F/	et	.	.	.	.	.
4.F\	.	.	4.F/	A-	.	.	.	.	.
.	.	.	.	.	4d\	-li-	4f\	-li-	.
8G\	.	.	8G/	-po-	.	.	.	.	.
=113-	=113-	=113-	=113-	=113-	=113-	=113-	=113-	=113-	=113-
!	!	!	!	!	!	!	!LO:TX:a:t=P:problem=nuta poprawiana	!	!
2A\	.	.	4.A/	-sto-	4c#X\	-cam	2e\	-cam	.
.	.	.	.	.	4c#\	Ec-	.	.	.
*	*	*	*custos:E	*	*	*	*	*	*
.	.	.	8A/	-li-	.	.	.	.	.
!	!	!	!LO:LB:g=original	!	!	!	!	!	!
4E\	.	.	4E/	-cam	4e\	-cle-	4g\	Ec-	.
!LO:TX:t=P:problem=kreska pseudotaktowa	!	!	!	!	!	!	!	!	!
4F\	.	.	4F/	Ec-	4d\	.	4f\	.	.
1A	1r	.	2.A/	-cle-	4c#X\	.	4e\	.	.
*	*	*	*	*	*custos:e	*	*	*	*
.	.	.	.	.	4fny\	.	2d\	-cle-	.
!	!	!	!	!	!LO:LB:g=original	!	!	!	!
.	.	.	.	.	4.e\	.	.	.	.
.	.	.	4A/	-si-	.	.	4c#X/	-si-	.
.	.	.	.	.	8e\	-si-	.	.	.
=114-	=114-	=114-	=114-	=114-	=114-	=114-	=114-	=114-	=114-
1D	2r	.	2D/	-am	2d\	-am	2d\	-am	.
.	2D/	Con-	2F#X/	Con-	2A/	Con-	2d\	con-	.
1GG	2.GG/	-fi-	2.G/	-fi-	2.B-X\	-fi-	2.d\	-fi-	.
.	4GG/	-te-	4G/	-te-	4B-\	-te-	4d\	-te-	.
=115-	=115-	=115-	=115-	=115-	=115-	=115-	=115-	=115-	=115-
!	!	!	!LO:N:acc=-	!	!	!	!	!	!
4D/	4D/	-or	4Fn/	-or	4A/	-or	4d\	-or	.
4BB-X/	4BB-X/	V-	4F/	V-	4B-X\	V-	4d\	V-	.
4BB-/	4BB-/	-nu(m)	4F/	-num	4B-\	-num	8.d\	-num	.
.	.	.	.	.	.	.	16d\	ba-	.
4AA/	4AA/	bap-	4A/	Bap-	4cny\	Bap-	2f\	-pti-	.
*custos:FF	*	*	*	*	*	*	*	*	*
1GG	1GG	-tiſ-	1B-X	-tiz	2d\	-tiz-	.	.	.
.	.	.	.	.	.	.	8e\L	.	.
.	.	.	.	.	.	.	8d\J	.	.
.	.	.	.	.	4c\	.	2e\	.	.
.	.	.	.	.	4B-X\	.	.	.	.
!LO:LB:g=original	!	!	!	!	!	!	!	!	!
=116-	=116-	=116-	=116-	=116-	=116-	=116-	=116-	=116-	=116-
4FF/	4FFny/	-ma	2A/	ma	2c\	-ma	4f\	-sma	.
8F\L	8F\	in	.	.	.	.	8a\	in	.
*	*	*	*	*	*	*	*custos:f	*	*
8E\J	8E\	re-	.	.	.	.	8g\	re-	.
!	!	!	!	!	!	!	!LO:PB:g=original	!	!
4D/	4D/	-mi-	4r	.	2r	.	4f\	-mi-	.
!LO:TX:t=P:problem=kreska pseudotaktowa	!	!	!	!	!	!	!	!	!
4C#X/	4C#X/	-ßi-	8A/	in	.	.	4e\	-ßi-	.
.	.	.	8G/	re-	.	.	.	.	.
4D/	4D/	-o-	4F/	-miſ-	2r	.	4d\	-o-	.
4AA/	4AA/	-ne(m)	4E/	-si-	.	.	4cny/	-ne(m)	.
4BB-X/	4BB-X/	pec-	1D/	-o-	4r	.	4B-X/	pec-	.
*	*custos:GG	*	*	*	*	*	*	*	*
4FF#X/	4FF#X/	-ca-	.	.	8d\	in	4A/	-ca-	.
.	.	.	.	.	8c\	re-	.	.	.
!	!LO:LB:g=original	!	!	!	!	!	!	!	!
=117-	=117-	=117-	=117-	=117-	=117-	=117-	=117-	=117-	=117-
4GG/	4GG/	-to-	.	.	4B-X\	-miſ-	4G/	-to-	.
4D/	4D/	-ru(m)	.	.	4A\	-si-	4F#X/	-ru(m)	.
*	*	*	*custos:B	*	*	*	*	*	*
2GG/	4.GG/	pec-	4D/	.	[2G/	-o-	8B-X\L	pec-	.
.	.	.	.	.	.	.	8c\	.	.
!	!	!	!LO:LB:g=original	!	!	!	!	!	!
.	.	.	8.B-X\	nem pec-	.	.	8d\J	.	.
.	8GG/	-ca-	.	.	.	.	8e\	-ca-	.
.	.	.	16B-\	-ca-	.	.	.	.	.
!LO:TX:t=P:problem=kreska pseudotaktowa	!	!	!	!	!	!	!	!	!
1AA	1AA	-to-	1A	-to-	8G/]	.	4c#X/	-to-	.
*	*	*	*	*	*custos:F	*	*	*	*
.	.	.	.	.	8Fny/	-nem	.	.	.
!	!	!	!	!	!LO:LB:g=original	!	!	!	!
.	.	.	.	.	8.F/	pec-	2d\	.	.
.	.	.	.	.	16E/	-ca-	.	.	.
.	.	.	.	.	2E/	-to-	.	.	.
.	.	.	.	.	.	.	4c#X/	.	.
=118-	=118-	=118-	=118-	=118-	=118-	=118-	=118-	=118-	=118-
1D	4D/	-ru(m)	4A,</	-rum	4F#X/	-rum	4d\	-ru(m)	.
.	2D/	et	2A/	et	2F#/	et	2d\	et	.
.	4D/	ex-	4A/	ex-	4F#/	ex-	4d\	ex-	.
1GG	2GG/	-pec-	2Bny\	-pec-	2G/	-pec-	2d\	-pec-	.
.	2GG/	-to	2B\	-to	2G/	-to	2d\	-to	.
=119-	=119-	=119-	=119-	=119-	=119-	=119-	=119-	=119-	=119-
2GG/	2r	.	4d\	re-	1r	.	0rg	.	.
.	.	.	4c\	-sur-	.	.	.	.	.
4G\	4Gny\	re-	4B\	-rec-	.	.	.	.	.
!LO:TX:t=P:problem=kreska pseudotaktowa	!	!	!	!	!	!	!	!	!
4F#X\	4F#X\	-ſur-	4A\	-ti-	.	.	.	.	.
4E\	4E\	-re-	1G	-o-	4g\	re-	.	.	.
4D/	4D/	-cti-	.	.	4f\	-ſur-	.	.	.
4Cny/	4Cny/	-o-	.	.	4e\	-re-	.	.	.
4BBny/	4BBny/	-nem	.	.	4d\	-cti-	.	.	.
=120-	=120-	=120-	=120-	=120-	=120-	=120-	=120-	=120-	=120-
1AA	2.AA/	mor-	2A/	-nem	4c\	-o-	4a\	re-	.
.	.	.	.	.	4Bny\	-nem	4g\	-ſur-	.
.	.	.	4.c\	mor-	2.A/	mor-	4f#X\	-re-	.
.	4AA/	-tu-	.	.	.	.	4e\	-cti-	.
.	.	.	8c\	-tu-	.	.	.	.	.
1BB	1BB	-o-	1B	-o-	.	.	8d#X\	-o-	.
.	.	.	.	.	.	.	8Bny/	-nem	.
.	.	.	.	.	4G/	-tu-	8.e\	mor-	.
*	*	*	*	*	*	*	*custos:e	*	*
.	.	.	.	.	.	.	16e\	-tu-	.
!	!	!	!	!	!	!	!LO:LB:g=original	!	!
.	.	.	.	.	2F#X/	-o-	4e\	-o-	.
.	.	.	.	.	.	.	16f#/	.	.
.	.	.	.	.	.	.	8.d#\	.	.
=121-	=121-	=121-	=121-	=121-	=121-	=121-	=121-	=121-	=121-
*M3/1	*M3/1	*	*M3/1	*	*M3/1	*	*M3/1	*	*
!	!	!	!	!	!	!	!LO:TX:t=P:problem=Znak O - tempus perfectum przed 3/1	!	!
0.E	0E	-rum	0B	-rum	0G#X,<	-rum	0e	-rum	.
.	1E	et	1G	Et	1c	Et	1e	et	.
=122-	=122-	=122-	=122-	=122-	=122-	=122-	=122-	=122-	=122-
0.E	1.E	Vi-	1.G	Vi-	1B	Vi-	1.e	Vi-	.
*	*	*	*	*	*custos:B	*	*	*	*
.	.	.	.	.	1B	-tam	.	.	.
.	2E\	-tam	2G/	-tam	.	.	2e\	-tam	.
*	*	*	*custos:A	*	*	*	*	*	*
!	!	!	!	!	!LO:LB:g=original	!	!	!	!
.	1E	Ven-	1G	.	1B	Ven-	1e	Ven-	.
!	!	!	!LO:LB:g=original	!	!	!	!	!	!
=123-	=123-	=123-	=123-	=123-	=123-	=123-	=123-	=123-	=123-
0.A	1.A	-tu-	1.A	Ventu-	1.c	-tu-	1.e	-tu-	.
.	2A\	-ri	2A/	-ri	2c\	-ri	2e\	-ri	.
.	1A	Ven-	1A	Ven-	1c	Ven-	1e	Ven-	.
=124-	=124-	=124-	=124-	=124-	=124-	=124-	=124-	=124-	=124-
!LO:TX:t=P:problem=kreska pseudotaktowa	!	!	!	!	!	!	!	!	!
0.G	0G	-tu-	0B	-tu-	0d	-tu-	0g	-tu-	.
.	1G	-ri	1B	-ri	1d	-ri	1g	-ri	.
=125-	=125-	=125-	=125-	=125-	=125-	=125-	=125-	=125-	=125-
0.C	1.C	se-	1.c	Sae-	1.e	sae-	1.g	Se-	.
.	2C/	-cu-	2c\	-cu-	2e\	-cu-	2g\	-cu-	.
.	1C	-li	1c	-li	1e	-li	1g	-li	.
!	!LO:LB:g=original	!	!	!	!	!	!	!	!
=126-	=126-	=126-	=126-	=126-	=126-	=126-	=126-	=126-	=126-
*custos:C	*	*	*	*	*	*	*	*	*
0.C	0C	A-	0c	a-	0e	A-	0g	A-	.
.	1C	-men	1c	-men	1e	-men	1g	-men	.
!LO:LB:g=original	!	!	!	!	!	!	!	!	!
=127-	=127-	=127-	=127-	=127-	=127-	=127-	=127-	=127-	=127-
*	*	*	*	*ij	*	*ij	*	*	*
2C/	2C/	A-	0c	a-	0e	A-	0.g	A-	.
2D/	2D/	.	.	.	.	.	.	.	.
2E\	2E\	.	.	.	.	.	.	.	.
2Fny\	2Fny\	.	.	.	.	.	.	.	.
1G	1G	.	1B	.	1d	.	.	.	.
=128-	=128-	=128-	=128-	=128-	=128-	=128-	=128-	=128-	=128-
1A	1A	.	0A	-men	1c	-men	1e	-men	.
*	*	*	*	*	*	*	*	*ij	*
0E	0E	.	.	.	0B	A-	0e	A-	.
!	!	!	!LO:TX:a:t=P:problem=# above	!	!	!	!	!	!
.	.	.	1G#X	a-	.	.	.	.	.
=129-	=129-	=129-	=129-	=129-	=129-	=129-	=129-	=129-	=129-
*M2/1	*M2/1	*	*	*	*M2/1	*	*M2/1	*	*
*met(C)	*met(C)	*	*	*	*met(C)	*	*met(C)	*	*
*	*	*	*	*	*	*	*custos:f	*	*
2AA/	2AA/	-men	[0Al;;	-men	1c#X	-men	1e	-men	.
*	*	*	*	*Xij	*	*	*	*	*
4A\	4A\	A-	.	.	.	.	.	.	.
4G\	4G\	.	.	.	.	.	.	.	.
!	!	!	!	!	!	!	!LO:LB:g=original	!	!
2F\	2F\	.	.	.	2d\	A-	4fny\	A-	.
.	.	.	.	.	.	.	4g\	.	.
2C#X/	2C#X/	.	.	.	2.e\	.	4a\	.	.
.	.	.	.	.	.	.	4g\	.	.
=130-	=130-	=130-	=130-	=130-	=130-	=130-	=130-	=130-	=130-
1D	1D	.	0A]	.	.	.	1f	.	.
.	.	.	.	.	8d\L	.	.	.	.
!	!	!	!	!	!LO:SIC:v:s=8c#	!	!	!	!
.	.	.	.	.	8cny\J	.	.	.	.
.	.	.	.	.	2d\	.	.	.	.
!	!	!	!	!	!LO:SIC:v:s=1c#	!	!	!	!
1AAl;	1AAl;	-men	.	.	1cl;	-men	1el	-men	.
*	*	*	*	*	*	*Xij	*	*Xij	*
==	==	==	==	==	==	==	==	==	==
*-	*-	*-	*-	*-	*-	*-	*-	*-	*-
!!!system-decoration: [(g1)]s5
!!!RDF**kern: < = below
!!!RDF**kern: l = terminal long
!!!ENC: : Marta Lawrence
!!!END: 2021-04-08
!!!ENC: Tomasz Grochalski
!!!END: 2021-03-20
